images/close-icon.svg

<svg width="12" height="12" viewBox="0 0 12 12" fill="none" xmlns="http://www.w3.org/2000/svg">
<path d="M1.5139 0.249216L5.99979 4.7351L10.4672 0.267676C10.5455 0.184343 10.6398 0.11768 10.7445 0.0716837C10.8492 0.0256874 10.9621 0.00130547 11.0764 0C11.3212 0 11.556 0.0972465 11.7291 0.270346C11.9022 0.443446 11.9994 0.67822 11.9994 0.923021C12.0016 1.03618 11.9806 1.1486 11.9377 1.25335C11.8949 1.35811 11.8311 1.45301 11.7502 1.53221L7.23663 5.99964L11.7502 10.5132C11.9023 10.662 11.9915 10.8636 11.9994 11.0762C11.9994 11.321 11.9022 11.5558 11.7291 11.7289C11.556 11.902 11.3212 11.9993 11.0764 11.9993C10.9588 12.0042 10.8414 11.9845 10.7318 11.9416C10.6221 11.8987 10.5226 11.8335 10.4395 11.7501L5.99979 7.26417L1.52313 11.7408C1.44514 11.8214 1.35197 11.8857 1.249 11.93C1.14602 11.9744 1.03529 11.9979 0.923171 11.9993C0.678371 11.9993 0.443597 11.902 0.270497 11.7289C0.0973967 11.5558 0.000150181 11.321 0.000150181 11.0762C-0.00200184 10.9631 0.0189941 10.8507 0.0618496 10.7459C0.104705 10.6412 0.168516 10.5463 0.249366 10.4671L4.76294 5.99964L0.249366 1.48606C0.0972381 1.33723 0.00803243 1.1357 0.000150181 0.923021C0.000150181 0.67822 0.0973967 0.443446 0.270497 0.270346C0.443597 0.0972465 0.678371 0 0.923171 0C1.1447 0.00276906 1.35699 0.0923021 1.5139 0.249216Z" fill="#1C1E4F"/>
</svg>

<?xml version="1.0" encoding="utf-8"?>
<!-- Generator: Adobe Illustrator 22.0.1, SVG Export Plug-In . SVG Version: 6.00 Build 0)  -->
<svg version="1.1" id="Layer_1" xmlns="http://www.w3.org/2000/svg" xmlns:xlink="http://www.w3.org/1999/xlink" x="0px" y="0px"
	 viewBox="0 0 12 12" style="enable-background:new 0 0 12 12;" xml:space="preserve">
<style type="text/css">
	.st0{fill:#1C1E4F;}
</style>
<path class="st0" d="M1.5,0.2L6,4.7l4.5-4.5c0.1-0.1,0.2-0.1,0.3-0.2S11,0,11.1,0c0.2,0,0.5,0.1,0.7,0.3C11.9,0.4,12,0.7,12,0.9
	c0,0.1,0,0.2-0.1,0.3c0,0.1-0.1,0.2-0.2,0.3L7.2,6l4.5,4.5c0.2,0.1,0.2,0.4,0.2,0.6c0,0.2-0.1,0.5-0.3,0.7c-0.2,0.2-0.4,0.3-0.7,0.3
	c-0.1,0-0.2,0-0.3-0.1c-0.1,0-0.2-0.1-0.3-0.2L6,7.3l-4.5,4.5c-0.1,0.1-0.2,0.1-0.3,0.2C1.1,12,1,12,0.9,12c-0.2,0-0.5-0.1-0.7-0.3
	C0.1,11.6,0,11.3,0,11.1c0-0.1,0-0.2,0.1-0.3c0-0.1,0.1-0.2,0.2-0.3L4.8,6L0.2,1.5C0.1,1.3,0,1.1,0,0.9c0-0.2,0.1-0.5,0.3-0.7
	C0.4,0.1,0.7,0,0.9,0C1.1,0,1.4,0.1,1.5,0.2z"/>
</svg>
